static/assets/head_icons_png/man/bizi/1026104.svg

<svg xmlns="http://www.w3.org/2000/svg" width="4" height="9"><g transform="translate(1.55 4.05)"><radialGradient id="a" gradientUnits="userSpaceOnUse" gradientTransform="matrix(.00186 .00006 -.00006 .00185 -66.45 50.7)" spreadMethod="pad" cx="0" cy="0" r="819.2" fx="0" fy="0"><stop offset="0" stop-color="#f39b61"/><stop offset="1" stop-color="#f8be98"/></radialGradient><path d="M-1.5-4.05l.9 1.3.2 1.15-.05 1.05-.1.05-.55-1.75-.45-1.8h.05M1.15 3.5l.25.1v.05l-1.3.4-.55-.2-.45-.15h-.05l-.4-.25-.15-.2.15-.3.4-.5.5-.4-.25.6v.45l.05.3.65.2.4-.15.75.05" fill="url(#a)"/><radialGradient id="b" gradientUnits="userSpaceOnUse" gradientTransform="matrix(.0007 .00006 -.00003 .00272 .2 -1)" spreadMethod="pad" cx="0" cy="0" r="819.2" fx="0" fy="0"><stop offset=".314" stop-color="#fff" stop-opacity=".431"/><stop offset="1" stop-color="#fff" stop-opacity="0"/></radialGradient><path d="M.6-.95L.45.6.4.9.35.95l-.2.25-.2-.3L-.1.85l-.05-.3L-.3-1l.2-1.6q.1-.6.3-.6l.3.7.1 1.55" fill="url(#b)"/><radialGradient id="c" gradientUnits="userSpaceOnUse" gradientTransform="rotate(2.858 -45.934 1.03) scale(.00055)" spreadMethod="pad" cx="0" cy="0" r="819.2" fx="0" fy="0"><stop offset=".314" stop-color="#fff" stop-opacity=".431"/><stop offset="1" stop-color="#fff" stop-opacity="0"/></radialGradient><path d="M0 2.1q.15 0 .3.15l.1.35-.15.3-.3.1-.3-.15-.1-.3.1-.3L0 2.1" fill="url(#c)"/><path d="M-.5 3.65l.4.3h-.05l-.15-.1h-.05l-.2-.05-.5-.15.05-.05q.1-.15.35 0l.15.05m1.5.1l-.2.05H.7L.5 4l-.15.05H.2l-.25-.1H-.1L.1 4l.35-.05.2-.15q.15-.15.3-.2l.1-.05.4.05h.05l-.5.15" fill="#823909"/></g></svg>

<?xml version="1.0" encoding="utf-8"?>
<svg version="1.1" id="Layer_1"
xmlns="http://www.w3.org/2000/svg"
xmlns:xlink="http://www.w3.org/1999/xlink"
xmlns:author="http://www.sothink.com"
width="4px" height="9px"
xml:space="preserve">
<g id="470" transform="matrix(1, 0, 0, 1, 1.55, 4.05)">
<radialGradient
id="RadialGradID_4079" gradientUnits="userSpaceOnUse" gradientTransform="matrix(0.00186157, 6.10352e-005, -6.10352e-005, 0.00184631, -66.45, 50.7)" spreadMethod ="pad" cx="0" cy="0" r="819.2" fx="0" fy="0" >
<stop  offset="0"  style="stop-color:#F39B61;stop-opacity:1" />
<stop  offset="1"  style="stop-color:#F8BE98;stop-opacity:1" />
</radialGradient>
<path style="fill:url(#RadialGradID_4079) " d="M-1.5,-4.05L-0.6 -2.75L-0.4 -1.6L-0.45 -0.55L-0.55 -0.5L-1.1 -2.25L-1.55 -4.05L-1.5 -4.05M1.15,3.5L1.4 3.6L1.4 3.65L0.1 4.05L-0.45 3.85L-0.9 3.7L-0.95 3.7L-1.35 3.45L-1.5 3.25L-1.35 2.95L-0.95 2.45L-0.45 2.05L-0.7 2.65L-0.7 2.7L-0.7 3.1L-0.65 3.4L0 3.6L0.4 3.45L1.15 3.5" />
<radialGradient
id="RadialGradID_4080" gradientUnits="userSpaceOnUse" gradientTransform="matrix(0.000701904, 6.10352e-005, -3.05176e-005, 0.00271606, 0.2, -1)" spreadMethod ="pad" cx="0" cy="0" r="819.2" fx="0" fy="0" >
<stop  offset="0.313725"  style="stop-color:#FFFFFF;stop-opacity:0.431373" />
<stop  offset="1"  style="stop-color:#FFFFFF;stop-opacity:0" />
</radialGradient>
<path style="fill:url(#RadialGradID_4080) " d="M0.6,-0.95L0.45 0.6L0.4 0.9L0.35 0.95L0.15 1.2L-0.05 0.9L-0.1 0.85L-0.15 0.55L-0.3 -1L-0.1 -2.6Q0 -3.2 0.2 -3.2L0.5 -2.5L0.6 -0.95" />
<radialGradient
id="RadialGradID_4081" gradientUnits="userSpaceOnUse" gradientTransform="matrix(0.000549316, 3.05176e-005, -3.05176e-005, 0.000549316, 0, 2.55)" spreadMethod ="pad" cx="0" cy="0" r="819.2" fx="0" fy="0" >
<stop  offset="0.313725"  style="stop-color:#FFFFFF;stop-opacity:0.431373" />
<stop  offset="1"  style="stop-color:#FFFFFF;stop-opacity:0" />
</radialGradient>
<path style="fill:url(#RadialGradID_4081) " d="M0,2.1Q0.15 2.1 0.3 2.25L0.4 2.6L0.25 2.9L-0.05 3L-0.35 2.85L-0.45 2.55L-0.35 2.25L0 2.1" />
<path style="fill:#823909;fill-opacity:1" d="M-0.5,3.65L-0.1 3.95L-0.15 3.95L-0.3 3.85L-0.35 3.85L-0.55 3.8L-1.05 3.65L-1 3.6Q-0.9 3.45 -0.65 3.6L-0.5 3.65M1,3.75L0.8 3.8L0.7 3.8L0.5 4L0.35 4.05L0.2 4.05L-0.05 3.95L-0.1 3.95L0.1 4L0.45 3.95L0.65 3.8Q0.8 3.65 0.95 3.6L1.05 3.55L1.45 3.6L1.5 3.6L1 3.75" />
</g>
</svg>
